coreui/free/cil-newspaper.svg

<svg xmlns="http://www.w3.org/2000/svg" viewBox="0 0 512 512">
  <path fill="var(--ci-primary-color, currentColor)" d="M88,72V388a20,20,0,0,1-40,0V152H16V388a52.059,52.059,0,0,0,52,52H444a52.059,52.059,0,0,0,52-52V72ZM464,388a20.023,20.023,0,0,1-20,20H116a51.722,51.722,0,0,0,4-20V104H464Z" class="ci-primary"/>
  <path fill="var(--ci-primary-color, currentColor)" d="M296,136H152V296H296ZM264,264H184V168h80Z" class="ci-primary"/>
  <rect width="104" height="32" x="328" y="136" fill="var(--ci-primary-color, currentColor)" class="ci-primary"/>
  <rect width="104" height="32" x="328" y="200" fill="var(--ci-primary-color, currentColor)" class="ci-primary"/>
  <rect width="104" height="32" x="328" y="264" fill="var(--ci-primary-color, currentColor)" class="ci-primary"/>
</svg>

<svg viewBox="0 0 512 512" xmlns="http://www.w3.org/2000/svg"><g><path d="M88 72v316 0c0 11.04-8.96 20-20 20 -11.05 0-20-8.96-20-20V152H16v236h-.001c.03 28.7 23.29 51.96 52 52h376v0c28.7-.04 51.96-23.3 52-52V72Zm376 316v0c-.02 11.04-8.96 19.98-20 20H116v0c2.64-6.34 4-13.14 4-20V104h344Z"/><path d="M296 136H152v160h144Zm-32 128h-80v-96h80Z"/><path d="M328 136h104v32H328Z"/><path d="M328 200h104v32H328Z"/><path d="M328 264h104v32H328Z"/></g></svg>
